online-zoo/images/logo.svg

<svg width="112" height="57" viewBox="0 0 112 57" fill="none" xmlns="http://www.w3.org/2000/svg">
<path d="M23.6858 0.071458C30.032 0.071458 36.3828 0.0134405 42.7155 5.18266e-05C51.475 -0.0222626 59.2184 7.16299 56.0884 18.0747C54.9725 21.9619 52.6862 24.7691 52.6862 24.7691C52.6862 24.7691 52.3233 22.1047 49.1025 19.4181C49.1025 19.4181 46.7754 16.9456 42.6202 16.1468C40.6378 15.7674 39.0002 15.7764 32.6767 17.5972C23.8446 20.1411 24.2936 20.5249 21.4313 20.9801C11.7508 22.5153 4.43384 18.2399 1.40814 9.08649C0.727701 7.03356 0.328509 4.92262 0.0563325 2.77597C-0.193163 0.812298 0.423771 -0.00887395 2.61479 0.0268292C9.63694 0.147327 16.6591 0.071458 23.6858 0.071458Z" fill="black"/>
<path d="M42.8856 32.0883C39.7466 32.1641 36.9025 29.4819 36.83 26.3802C36.7529 23.3008 39.4836 20.5294 42.6633 20.4535C45.8023 20.3776 48.6464 23.0598 48.7189 26.1615C48.7961 29.2409 46.0608 32.0124 42.8856 32.0883Z" fill="black"/>
<path d="M44.4781 50.0469C38.8214 50.8413 37.769 50.4039 35.8774 50.1183C27.2176 48.8152 18.9616 42.6474 22.5044 32.0436C24.3189 26.6167 29.4132 24.9699 29.4132 24.9699C29.4132 24.9699 27.9979 27.1791 29.6944 30.196C29.6944 30.196 31.6178 33.7752 35.9726 33.9671C37.9913 34.0564 39.5926 34.3375 45.9161 32.5167C54.7483 29.9728 54.2992 29.589 57.1616 29.1338C66.842 27.5941 75.2205 33.4762 77.1847 41.0229C77.1847 41.0229 78.1418 43.7453 77.5476 47.2933C76.5269 53.3851 69.9675 56.9956 69.9675 56.9956C69.9675 56.9956 69.8268 47.4629 59.9604 47.4629C50.5114 47.4674 49.9171 49.2793 44.4781 50.0469Z" fill="#FFB600"/>
<path d="M82.9216 13.9913C82.7492 6.72568 89.1998 0.183085 96.7028 0.00457C104.115 -0.173945 110.833 6.15889 111.001 13.4825C111.173 20.7481 104.723 27.2907 97.2199 27.4692C89.8122 27.6477 83.094 21.3149 82.9216 13.9913Z" fill="black"/>
<path d="M76.1368 0.00457C68.6338 0.183085 62.1832 6.72568 62.3556 13.9913C62.5279 21.3149 69.2461 27.6477 76.6539 27.4692C84.1569 27.2907 90.6075 20.7481 90.4351 13.4825C90.2673 6.15889 83.549 -0.173945 76.1368 0.00457Z" fill="#FFB600"/>
</svg>

<svg width="112" height="57" fill="none" xmlns="http://www.w3.org/2000/svg"><path d="M23.686.071c6.346 0 12.697-.058 19.03-.07 8.759-.023 16.502 7.162 13.372 18.074-1.116 3.887-3.402 6.694-3.402 6.694s-.363-2.664-3.584-5.35c0 0-2.327-2.473-6.482-3.272-1.982-.38-3.62-.37-9.943 1.45-8.832 2.544-8.383 2.928-11.246 3.383-9.68 1.535-16.997-2.74-20.023-11.894C.728 7.034.328 4.923.056 2.776-.194.812.424-.009 2.615.026c7.022.121 14.044.045 21.07.045z" fill="#000"/><path d="M42.886 32.088c-3.14.076-5.983-2.606-6.056-5.708-.077-3.08 2.654-5.85 5.833-5.927 3.14-.075 5.983 2.607 6.056 5.709.077 3.079-2.658 5.85-5.833 5.926z" fill="#000"/><path d="M44.478 50.047c-5.657.794-6.709.357-8.6.071-8.66-1.303-16.916-7.47-13.374-18.074 1.815-5.427 6.91-7.074 6.91-7.074s-1.416 2.21.28 5.226c0 0 1.924 3.58 6.279 3.771 2.018.09 3.62.37 9.943-1.45 8.832-2.544 8.383-2.928 11.246-3.383 9.68-1.54 18.059 4.342 20.023 11.889 0 0 .957 2.722.363 6.27-1.021 6.092-7.58 9.703-7.58 9.703s-.141-9.533-10.008-9.533c-9.449.004-10.043 1.816-15.482 2.584z" fill="#FFB600"/><path d="M82.922 13.991C82.749 6.726 89.2.183 96.702.005c7.413-.179 14.131 6.154 14.299 13.477.172 7.266-6.278 13.809-13.781 13.987-7.408.179-14.126-6.154-14.298-13.478z" fill="#000"/><path d="M76.137.005c-7.503.178-13.954 6.72-13.781 13.986.172 7.324 6.89 13.657 14.298 13.478 7.503-.178 13.954-6.72 13.781-13.987C90.267 6.16 83.55-.174 76.137.005z" fill="#FFB600"/></svg>
